svgs/sharp-duotone-thin/card-diamond.svg

<svg xmlns="http://www.w3.org/2000/svg" viewBox="0 0 384 512"><!--! Font Awesome Pro 7.1.0 by @fontawesome - https://fontawesome.com License - https://fontawesome.com/license (Commercial License) Copyright 2025 Fonticons, Inc. --><path opacity=".4" fill="currentColor" d="M16 16l352 0 0 480-352 0 0-480zM73.4 256l11.3 11.3 96 96 11.3 11.3 11.3-11.3 96-96 11.3-11.3-11.3-11.3-96-96-11.3-11.3-11.3 11.3-96 96-11.3 11.3z"/><path fill="currentColor" d="M16 16l0 480 352 0 0-480-352 0zM0 0L384 0 384 512 0 512 0 0zM203.3 148.7l96 96 11.3 11.3-11.3 11.3-96 96-11.3 11.3-11.3-11.3-96-96-11.3-11.3 11.3-11.3 96-96 11.3-11.3 11.3 11.3zM96 256l11.3 11.3 73.4 73.4 11.3 11.3 96-96-11.3-11.3-73.4-73.4-11.3-11.3-96 96z"/></svg>

<svg xmlns="http://www.w3.org/2000/svg" viewBox="0 0 384 512"><!--! Font Awesome Pro 6.7.2 by @fontawesome - https://fontawesome.com License - https://fontawesome.com/license (Commercial License) Copyright 2024 Fonticons, Inc. --><defs><style>.fa-secondary{opacity:.4}</style></defs><path class="fa-secondary" d="M16 16l352 0 0 480L16 496 16 16zM73.4 256l11.3 11.3 96 96L192 374.6l11.3-11.3 96-96L310.6 256l-11.3-11.3-96-96L192 137.4l-11.3 11.3-96 96L73.4 256z"/><path class="fa-primary" d="M16 16l0 480 352 0 0-480L16 16zM0 0L16 0 368 0l16 0 0 16 0 480 0 16-16 0L16 512 0 512l0-16L0 16 0 0zM203.3 148.7l96 96L310.6 256l-11.3 11.3-96 96L192 374.6l-11.3-11.3-96-96L73.4 256l11.3-11.3 96-96L192 137.4l11.3 11.3zM96 256l11.3 11.3 73.4 73.4L192 352l11.3-11.3 73.4-73.4L288 256l-11.3-11.3-73.4-73.4L192 160l-11.3 11.3-73.4 73.4L96 256z"/></svg>
